X: 42396
T: Went To The River
R: polka
M: 2/4
K: Cmajor
|:GE/G/ AG|EG AG|CE ED|[M:3/4] DF ED D2|
M:2/4
AG EG|AG EG|DF ED|C2 C2:|
|:CE GB|cG cB|AG AB/A/|G2 G2|
AG EG|AG EG|DF ED|C2 C2:|

